build/service/EyeCloseOutline.svg

<svg xmlns="http://www.w3.org/2000/svg" fill="none" viewBox="0 0 24 24" focusable="false"><path d="M0 0H24V24H0z"/><path fill="#74767B" d="M21.7004 10.0455C21.9995 10.244 22.081 10.6474 21.8824 10.9465C21.3825 11.6997 20.7407 12.5191 19.9689 13.3045L21.8045 15.1401C22.0584 15.394 22.0584 15.8055 21.8045 16.0594C21.5507 16.3132 21.1391 16.3132 20.8853 16.0594L19.0183 14.1924C18.0831 14.992 17.0028 15.7078 15.7919 16.2154L16.8262 18.7042C16.964 19.0357 16.8069 19.4161 16.4754 19.5538C16.1439 19.6916 15.7635 19.5346 15.6258 19.2031L14.5615 16.6425C13.7554 16.8653 12.9004 16.9918 12.0001 16.9918C11.0838 16.9918 10.2288 16.8687 9.4338 16.6544L8.37454 19.2031C8.23677 19.5346 7.85635 19.6916 7.52486 19.5538C7.19336 19.4161 7.03632 19.0357 7.17409 18.7042L8.20096 16.2334C6.9569 15.7166 5.88511 14.9848 4.9797 14.1947L3.11499 16.0594C2.86115 16.3132 2.44959 16.3132 2.19575 16.0594C1.94191 15.8055 1.94191 15.394 2.19575 15.1401L4.03857 13.2973C3.23208 12.4606 2.60003 11.624 2.13602 10.959C1.9306 10.6646 2.00273 10.2594 2.29713 10.054C2.59152 9.84854 2.99671 9.92067 3.20214 10.2151C4.66531 12.312 7.54153 15.6918 12.0001 15.6918C16.0336 15.6918 19.1492 12.7132 20.7994 10.2275C20.9979 9.92844 21.4013 9.84694 21.7004 10.0455Z"/></svg>

<svg xmlns="http://www.w3.org/2000/svg" fill="none" viewBox="0 0 24 24" focusable="false"><path fill="#74767B" d="M21.7 10.04c.29.2.38.6.18.9-.5.75-1.14 1.57-1.92 2.36l1.84 1.84c.25.25.25.66 0 .91a.64.64 0 0 1-.92 0l-1.87-1.86c-.93.8-2.01 1.51-3.22 2.02l1.03 2.49a.65.65 0 0 1-1.2.5l-1.06-2.56a9.7 9.7 0 0 1-5.13.01L8.37 19.2a.65.65 0 0 1-1.2-.5l1.03-2.47c-1.25-.52-2.32-1.25-3.23-2.04l-1.86 1.86a.64.64 0 0 1-.92 0 .646.646 0 0 1 0-.91l1.84-1.85c-.8-.83-1.43-1.67-1.9-2.34-.2-.29-.13-.7.16-.9.3-.21.7-.13.91.16 1.46 2.1 4.34 5.48 8.8 5.48 4.03 0 7.14-2.98 8.79-5.47.2-.3.61-.38.91-.18"/></svg>
